X: 11099
T: Dufftown Rally
R: jig
M: 6/8
K: Dmajor
^g|"D"a^ga BAG|"D"A2f d2B|"D"A^GA d2B|"A7"c3c2A|
"A7"A2B c2d|"A7"e2f g2^g|"A7"a^ga e2=f|"D"f3f2 g|
"D"a^ga bag|"D"a2f d2B|"D"A^GA d2c|"G"B3B2 B|
"G"B^AB dcB|"D"A2d f2a|"A7"a^ga =g2e|"D"d3d2||
^g|"D"aAA BAA|"D"aAA B2A|"D"a^ga b2f|"G"g3g2 g|
"A7"gAA BAA|"A7"gAA B2A|"A7"ABc de=f|"D"f3f2 b|
"D"aAA BAA|"D"gAA B2A|"D"a^ga =g2f|"G"B3B2 B|
"G"B^A^B dcB|"D"A2d f2a|"A7"a^ga =g2e|"D"d3d2||

